; generated by PrusaSlicer 2.2.0-rc2+win64 on 2020-10-26 at 13:12:54 UTC

; 

; external perimeters extrusion width = 0.60mm
; perimeters extrusion width = 0.60mm
; infill extrusion width = 0.60mm
; solid infill extrusion width = 0.60mm
; top infill extrusion width = 0.60mm
; support material extrusion width = 0.60mm
; first layer extrusion width = 0.60mm

M107
M190 S60 ; set bed temperature and wait for it to be reached
M104 S200 ; set temperature
G28 ; home all axes
G1 Z5 F5000 ; lift nozzle
M109 S200 ; set temperature and wait for it to be reached
G21 ; set units to millimeters
G90 ; use absolute coordinates
M82 ; use absolute distances for extrusion
G92 E0
; Filament gcode
G1 Z0.350 F4800.000
G10 ; retract
G92 E0
G1 X90.300 Y90.300
G11 ; unretract
G92 E0
G1 F1500.000
G1 X109.700 Y90.300 E1.48174
G1 X109.700 Y109.700 E2.96348
G1 X90.300 Y109.700 E4.44522
G1 X90.300 Y90.450 E5.91550
G10 ; retract
G92 E0
G1 X109.543 Y91.531 F4800.000
G11 ; unretract
G92 E0
G1 F1500.000
G1 X108.705 Y90.694 E0.09142
G1 X107.955 Y90.694 E0.14937
G1 X109.306 Y92.045 E0.29696
G1 X109.306 Y92.796 E0.35491
G1 X107.204 Y90.694 E0.58445
G1 X106.454 Y90.694 E0.64240
G1 X109.306 Y93.546 E0.95390
G1 X109.306 Y94.297 E1.01186
G1 X105.703 Y90.694 E1.40532
G1 X104.953 Y90.694 E1.46327
G1 X109.306 Y95.047 E1.93869
G1 X109.306 Y95.798 E1.99664
G1 X104.202 Y90.694 E2.55401
G1 X103.452 Y90.694 E2.61197
G1 X109.306 Y96.548 E3.25130
G1 X109.306 Y97.299 E3.30926
G1 X102.701 Y90.694 E4.03055
G1 X101.951 Y90.694 E4.08850
G1 X109.306 Y98.049 E4.89175
G1 X109.306 Y98.799 E4.94971
G1 X101.201 Y90.694 E5.83492
G1 X100.450 Y90.694 E5.89287
G1 X109.306 Y99.550 E6.86004
G1 X109.306 Y100.300 E6.91799
G1 X99.700 Y90.694 E7.96712
G1 X98.949 Y90.694 E8.02507
G1 X109.306 Y101.051 E9.15616
G1 X109.306 Y101.801 E9.21411
G1 X98.199 Y90.694 E10.42715
G1 X97.448 Y90.694 E10.48511
G1 X109.306 Y102.552 E11.78011
G1 X109.306 Y103.302 E11.83806
G1 X96.698 Y90.694 E13.21502
G1 X95.947 Y90.694 E13.27298
G1 X109.306 Y104.053 E14.73190
G1 X109.306 Y104.803 E14.78985
G1 X95.197 Y90.694 E16.33073
G1 X94.446 Y90.694 E16.38868
G1 X109.306 Y105.554 E18.01152
G1 X109.306 Y106.304 E18.06947
G1 X93.696 Y90.694 E19.77427
G1 X92.945 Y90.694 E19.83222
G1 X109.306 Y107.055 E21.61897
G1 X109.306 Y107.805 E21.67693
G1 X92.195 Y90.694 E23.54564
G1 X91.444 Y90.694 E23.60359
G1 X109.306 Y108.556 E25.55426
G1 X109.306 Y109.306 E25.61221
G1 X90.694 Y90.694 E27.64483
G1 X90.694 Y91.444 E27.70279
G1 X108.556 Y109.306 E29.65345
G1 X107.805 Y109.306 E29.71140
G1 X90.694 Y92.195 E31.58011
G1 X90.694 Y92.945 E31.63806
G1 X107.055 Y109.306 E33.42480
G1 X106.304 Y109.306 E33.48276
G1 X90.694 Y93.696 E35.18754
G1 X90.694 Y94.446 E35.24550
G1 X105.554 Y109.306 E36.86832
G1 X104.803 Y109.306 E36.92628
G1 X90.694 Y95.197 E38.46715
G1 X90.694 Y95.947 E38.52510
G1 X104.053 Y109.306 E39.98401
G1 X103.302 Y109.306 E40.04196
G1 X90.694 Y96.698 E41.41892
G1 X90.694 Y97.448 E41.47687
G1 X102.552 Y109.306 E42.77186
G1 X101.801 Y109.306 E42.82982
G1 X90.694 Y98.199 E44.04285
G1 X90.694 Y98.949 E44.10080
G1 X101.051 Y109.306 E45.23188
G1 X100.300 Y109.306 E45.28983
G1 X90.694 Y99.700 E46.33895
G1 X90.694 Y100.450 E46.39691
G1 X99.550 Y109.306 E47.36407
G1 X98.799 Y109.306 E47.42202
G1 X90.694 Y101.201 E48.30722
G1 X90.694 Y101.951 E48.36517
G1 X98.049 Y109.306 E49.16841
G1 X97.298 Y109.306 E49.22637
G1 X90.694 Y102.702 E49.94765
G1 X90.694 Y103.452 E50.00561
G1 X96.548 Y109.306 E50.64493
G1 X95.797 Y109.306 E50.70288
G1 X90.694 Y104.203 E51.26025
G1 X90.694 Y104.953 E51.31820
G1 X95.047 Y109.306 E51.79361
G1 X94.296 Y109.306 E51.85157
G1 X90.694 Y105.704 E52.24502
G1 X90.694 Y106.454 E52.30297
G1 X93.546 Y109.306 E52.61446
G1 X92.795 Y109.306 E52.67241
G1 X90.694 Y107.205 E52.90195
G1 X90.694 Y107.955 E52.95990
G1 X92.045 Y109.306 E53.10747
G1 X91.294 Y109.306 E53.16543
G1 X90.457 Y108.469 E53.25684
G1 Z0.700 F4800.000
G1 X90.300 Y90.300
G1 F1500.000
G1 X109.700 Y90.300 E54.73857
G1 X109.700 Y109.700 E56.22031
G1 X90.300 Y109.700 E57.70205
G1 X90.300 Y90.450 E59.17233
G1 X94.710 Y109.306 F4800.000
G1 F2100.000
G1 X94.207 Y108.448 E59.24832
G1 X93.437 Y107.603 E59.33564
G1 X92.502 Y106.758 E59.43190
G1 X92.095 Y106.336 E59.47668
G1 X91.785 Y105.913 E59.51668
G1 X91.449 Y105.069 E59.58613
G1 X91.380 Y104.224 E59.65087
G1 X91.494 Y103.379 E59.71597
G1 X91.779 Y102.534 E59.78405
G1 X92.277 Y101.690 E59.85895
G1 X93.047 Y100.845 E59.94627
G1 X93.982 Y100.000 E60.04253
G1 X94.389 Y99.578 E60.08731
G1 X94.698 Y99.155 E60.12731
G1 X95.035 Y98.310 E60.19676
G1 X95.103 Y97.466 E60.26149
G1 X94.989 Y96.621 E60.32660
G1 X94.705 Y95.776 E60.39468
G1 X94.207 Y94.931 E60.46957
G1 X93.437 Y94.087 E60.55689
G1 X92.502 Y93.242 E60.65315
G1 X92.095 Y92.819 E60.69793
G1 X91.785 Y92.397 E60.73793
G1 X91.449 Y91.552 E60.80738
G1 X91.382 Y90.694 E60.87316
G1 X98.532 Y90.694 E61.41926
G1 X99.035 Y91.552 E61.49525
G1 X99.805 Y92.397 E61.58257
G1 X100.740 Y93.242 E61.67883
G1 X101.147 Y93.664 E61.72361
G1 X101.456 Y94.087 E61.76361
G1 X101.793 Y94.931 E61.83306
G1 X101.862 Y95.776 E61.89779
G1 X101.747 Y96.621 E61.96290
G1 X101.463 Y97.466 E62.03098
G1 X100.965 Y98.310 E62.10587
G1 X100.195 Y99.155 E62.19319
G1 X99.260 Y100.000 E62.28946
G1 X98.853 Y100.422 E62.33423
G1 X98.544 Y100.845 E62.37423
G1 X98.207 Y101.690 E62.44368
G1 X98.138 Y102.534 E62.50842
G1 X98.253 Y103.379 E62.57353
G1 X98.537 Y104.224 E62.64160
G1 X99.035 Y105.069 E62.71650
G1 X99.805 Y105.913 E62.80382
G1 X100.740 Y106.758 E62.90008
G1 X101.147 Y107.181 E62.94486
G1 X101.456 Y107.603 E62.98486
G1 X101.793 Y108.448 E63.05431
G1 X101.860 Y109.306 E63.12009
G1 X108.226 Y109.306 E63.60634
G1 X107.723 Y108.448 E63.68233
G1 X106.953 Y107.603 E63.76965
G1 X106.018 Y106.758 E63.86591
G1 X105.611 Y106.336 E63.91069
G1 X105.302 Y105.913 E63.95069
G1 X104.965 Y105.069 E64.02014
G1 X104.897 Y104.224 E64.08488
G1 X105.011 Y103.379 E64.14998
G1 X105.295 Y102.534 E64.21806
G1 X105.793 Y101.690 E64.29296
G1 X106.563 Y100.845 E64.38028
G1 X107.498 Y100.000 E64.47654
G1 X107.905 Y99.578 E64.52131
G1 X108.215 Y99.155 E64.56131
G1 X108.551 Y98.310 E64.63077
G1 X108.620 Y97.466 E64.69550
G1 X108.506 Y96.621 E64.76061
G1 X108.221 Y95.776 E64.82868
G1 X107.723 Y94.931 E64.90358
G1 X106.953 Y94.087 E64.99090
G1 X106.018 Y93.242 E65.08716
G1 X105.611 Y92.819 E65.13194
G1 X105.302 Y92.397 E65.17194
G1 X104.965 Y91.552 E65.24139
G1 X104.899 Y90.694 E65.30717
G1 Z1.050 F4800.000
G1 X90.300 Y90.300
G1 F1500.000
G1 X109.700 Y90.300 E66.78891
G1 X109.700 Y109.700 E68.27065
G1 X90.300 Y109.700 E69.75239
G1 X90.300 Y90.450 E71.22267
G1 X94.683 Y109.306 F4800.000
G1 F2100.000
G1 X94.054 Y108.448 E71.30396
G1 X93.117 Y107.603 E71.40033
G1 X92.038 Y106.758 E71.50501
G1 X91.627 Y106.336 E71.55003
G1 X91.358 Y105.913 E71.58826
G1 X91.150 Y105.069 E71.65472
G1 X91.201 Y104.224 E71.71936
G1 X91.419 Y103.379 E71.78600
G1 X91.807 Y102.534 E71.85699
G1 X92.429 Y101.690 E71.93714
G1 X93.367 Y100.845 E72.03351
G1 X94.446 Y100.000 E72.13819
G1 X94.857 Y99.578 E72.18321
G1 X95.126 Y99.155 E72.22145
G1 X95.334 Y98.310 E72.28790
G1 X95.283 Y97.466 E72.35254
G1 X95.065 Y96.621 E72.41918
G1 X94.677 Y95.776 E72.49018
G1 X94.054 Y94.931 E72.57033
G1 X93.117 Y94.087 E72.66670
G1 X92.038 Y93.242 E72.77138
G1 X91.627 Y92.819 E72.81640
G1 X91.358 Y92.397 E72.85463
G1 X91.150 Y91.552 E72.92109
G1 X91.204 Y90.694 E72.98680
G1 X98.559 Y90.694 E73.54851
G1 X99.188 Y91.552 E73.62980
G1 X100.125 Y92.397 E73.72617
G1 X101.204 Y93.242 E73.83085
G1 X101.615 Y93.664 E73.87587
G1 X101.884 Y94.087 E73.91410
G1 X102.092 Y94.931 E73.98056
G1 X102.041 Y95.776 E74.04520
G1 X101.823 Y96.621 E74.11184
G1 X101.435 Y97.466 E74.18284
G1 X100.812 Y98.310 E74.26298
G1 X99.875 Y99.155 E74.35935
G1 X98.796 Y100.000 E74.46403
G1 X98.385 Y100.422 E74.50905
G1 X98.116 Y100.845 E74.54729
G1 X97.908 Y101.690 E74.61374
G1 X97.959 Y102.534 E74.67838
G1 X98.177 Y103.379 E74.74502
G1 X98.565 Y104.224 E74.81602
G1 X99.188 Y105.069 E74.89617
G1 X100.125 Y105.913 E74.99254
G1 X101.204 Y106.758 E75.09722
G1 X101.615 Y107.181 E75.14224
G1 X101.884 Y107.603 E75.18047
G1 X102.092 Y108.448 E75.24693
G1 X102.037 Y109.306 E75.31264
G1 X108.199 Y109.306 E75.78329
G1 X107.571 Y108.448 E75.86458
G1 X106.633 Y107.603 E75.96095
G1 X105.554 Y106.758 E76.06563
G1 X105.143 Y106.336 E76.11065
G1 X104.874 Y105.913 E76.14888
G1 X104.666 Y105.069 E76.21534
G1 X104.717 Y104.224 E76.27998
G1 X104.935 Y103.379 E76.34662
G1 X105.323 Y102.534 E76.41761
G1 X105.946 Y101.690 E76.49776
G1 X106.883 Y100.845 E76.59413
G1 X107.962 Y100.000 E76.69881
G1 X108.373 Y99.578 E76.74383
G1 X108.642 Y99.155 E76.78207
G1 X108.850 Y98.310 E76.84852
G1 X108.799 Y97.466 E76.91316
G1 X108.581 Y96.621 E76.97980
G1 X108.193 Y95.776 E77.05080
G1 X107.571 Y94.931 E77.13095
G1 X106.633 Y94.087 E77.22732
G1 X105.554 Y93.242 E77.33200
G1 X105.143 Y92.819 E77.37702
G1 X104.874 Y92.397 E77.41525
G1 X104.666 Y91.552 E77.48171
G1 X104.721 Y90.694 E77.54742
M106 S249.9
G1 Z1.400 F4800.000
G1 X90.300 Y90.300
G1 F1500.000
G1 X109.700 Y90.300 E79.02916
G1 X109.700 Y109.700 E80.51090
G1 X90.300 Y109.700 E81.99264
G1 X90.300 Y90.450 E83.46292
G1 X94.688 Y109.306 F4800.000
G1 F2100.000
G1 X93.914 Y108.448 E83.55123
G1 X93.379 Y108.025 E83.60328
G1 X91.380 Y106.758 E83.78406
G1 X90.979 Y106.336 E83.82855
G1 X90.800 Y105.913 E83.86358
G1 X90.788 Y105.069 E83.92810
G1 X90.981 Y104.224 E83.99428
G1 X91.308 Y103.379 E84.06350
G1 X91.804 Y102.534 E84.13829
G1 X92.570 Y101.690 E84.22540
G1 X93.105 Y101.267 E84.27744
G1 X95.104 Y100.000 E84.45823
G1 X95.505 Y99.578 E84.50272
G1 X95.684 Y99.155 E84.53774
G1 X95.696 Y98.310 E84.60227
G1 X95.503 Y97.466 E84.66845
G1 X95.175 Y96.621 E84.73766
G1 X94.680 Y95.776 E84.81245
G1 X93.914 Y94.931 E84.89956
G1 X93.379 Y94.509 E84.95161
G1 X91.380 Y93.242 E85.13240
G1 X90.979 Y92.819 E85.17688
G1 X90.800 Y92.397 E85.21191
G1 X90.788 Y91.552 E85.27644
G1 X90.986 Y90.694 E85.34374
G1 X98.554 Y90.694 E85.92176
G1 X99.328 Y91.552 E86.01007
G1 X99.863 Y91.975 E86.06211
G1 X101.862 Y93.242 E86.24290
G1 X102.263 Y93.664 E86.28739
G1 X102.442 Y94.087 E86.32241
G1 X102.454 Y94.931 E86.38694
G1 X102.261 Y95.776 E86.45312
G1 X101.933 Y96.621 E86.52233
G1 X101.438 Y97.466 E86.59713
G1 X100.672 Y98.310 E86.68423
G1 X100.137 Y98.733 E86.73628
G1 X98.138 Y100.000 E86.91707
G1 X97.737 Y100.422 E86.96155
G1 X97.558 Y100.845 E86.99658
G1 X97.546 Y101.690 E87.06111
G1 X97.739 Y102.534 E87.12729
G1 X98.067 Y103.379 E87.19650
G1 X98.562 Y104.224 E87.27129
G1 X99.328 Y105.069 E87.35840
G1 X99.863 Y105.491 E87.41045
G1 X101.862 Y106.758 E87.59124
G1 X102.263 Y107.181 E87.63572
G1 X102.442 Y107.603 E87.67075
G1 X102.454 Y108.448 E87.73528
G1 X102.256 Y109.306 E87.80258
G1 X108.204 Y109.306 E88.25692
G1 X107.430 Y108.448 E88.34523
G1 X106.895 Y108.025 E88.39728
G1 X104.896 Y106.758 E88.57807
G1 X104.495 Y106.336 E88.62255
G1 X104.316 Y105.913 E88.65758
G1 X104.304 Y105.069 E88.72211
G1 X104.497 Y104.224 E88.78829
G1 X104.825 Y103.379 E88.85750
G1 X105.320 Y102.534 E88.93229
G1 X106.086 Y101.690 E89.01940
G1 X106.621 Y101.267 E89.07145
G1 X108.620 Y100.000 E89.25223
G1 X109.021 Y99.578 E89.29672
G1 X109.200 Y99.155 E89.33175
G1 X109.212 Y98.310 E89.39628
G1 X109.019 Y97.466 E89.46246
G1 X108.692 Y96.621 E89.53167
G1 X108.196 Y95.776 E89.60646
G1 X107.430 Y94.931 E89.69357
G1 X106.895 Y94.509 E89.74561
G1 X104.896 Y93.242 E89.92640
G1 X104.495 Y92.819 E89.97089
G1 X104.316 Y92.397 E90.00591
G1 X104.304 Y91.552 E90.07044
G1 X104.502 Y90.694 E90.13775
G1 Z1.750 F4800.000
G1 X90.300 Y90.300
G1 F1500.000
G1 X109.700 Y90.300 E91.61949
G1 X109.700 Y109.700 E93.10122
G1 X90.300 Y109.700 E94.58296
G1 X90.300 Y90.450 E96.05325
G1 X108.236 Y109.306 F4800.000
G1 F2100.000
G1 X108.025 Y109.062 E96.07786
G1 X107.603 Y108.677 E96.12152
G1 X106.758 Y108.110 E96.19923
G1 X105.913 Y107.707 E96.27073
G1 X105.069 Y107.402 E96.33931
G1 X104.224 Y107.195 E96.40576
G1 X103.801 Y107.186 E96.43802
G1 X103.379 Y107.473 E96.47700
G1 X102.957 Y108.315 E96.54895
G1 X102.521 Y109.306 E96.63168
G1 X94.720 Y109.306 E97.22751
G1 X94.509 Y109.062 E97.25212
G1 X94.087 Y108.677 E97.29579
G1 X93.242 Y108.110 E97.37350
G1 X92.397 Y107.707 E97.44500
G1 X91.552 Y107.402 E97.51358
G1 X90.694 Y107.194 E97.58106
G1 X90.694 Y104.268 E97.80458
G1 X91.130 Y103.426 E97.87702
G1 X91.552 Y102.794 E97.93509
G1 X91.975 Y102.304 E97.98446
G1 X92.397 Y101.919 E98.02813
G1 X93.242 Y101.352 E98.10584
G1 X94.087 Y100.949 E98.17734
G1 X94.931 Y100.644 E98.24592
G1 X95.776 Y100.437 E98.31236
G1 X96.199 Y100.428 E98.34463
G1 X96.621 Y100.715 E98.38361
G1 X97.043 Y101.557 E98.45556
G1 X97.466 Y102.522 E98.53603
G1 X97.888 Y103.332 E98.60584
G1 X98.310 Y103.965 E98.66390
G1 X98.733 Y104.454 E98.71327
G1 X99.155 Y104.839 E98.75694
G1 X100.000 Y105.406 E98.83465
G1 X100.845 Y105.810 E98.90615
G1 X101.690 Y106.114 E98.97473
G1 X102.534 Y106.322 E99.04118
G1 X102.957 Y106.330 E99.07344
G1 X103.379 Y106.043 E99.11242
G1 X103.801 Y105.201 E99.18437
G1 X104.224 Y104.236 E99.26484
G1 X104.646 Y103.426 E99.33465
G1 X105.069 Y102.794 E99.39271
G1 X105.491 Y102.304 E99.44209
G1 X105.913 Y101.919 E99.48575
G1 X106.758 Y101.352 E99.56347
G1 X107.603 Y100.949 E99.63496
G1 X108.448 Y100.644 E99.70354
G1 X109.306 Y100.436 E99.77102
G1 X109.306 Y97.510 E99.99454
G1 X108.870 Y96.668 E100.06699
G1 X108.448 Y96.035 E100.12505
G1 X108.025 Y95.546 E100.17443
G1 X107.603 Y95.161 E100.21809
G1 X106.758 Y94.594 E100.29580
G1 X105.913 Y94.190 E100.36730
G1 X105.069 Y93.886 E100.43588
G1 X104.224 Y93.678 E100.50233
G1 X103.801 Y93.670 E100.53459
G1 X103.379 Y93.957 E100.57357
G1 X102.957 Y94.799 E100.64552
G1 X102.534 Y95.764 E100.72599
G1 X102.112 Y96.574 E100.79580
G1 X101.690 Y97.206 E100.85386
G1 X101.267 Y97.696 E100.90324
G1 X100.845 Y98.081 E100.94690
G1 X100.000 Y98.648 E101.02462
G1 X99.155 Y99.051 E101.09612
G1 X98.310 Y99.356 E101.16470
G1 X97.466 Y99.563 E101.23114
G1 X97.043 Y99.572 E101.26341
G1 X96.621 Y99.285 E101.30239
G1 X96.199 Y98.443 E101.37433
G1 X95.776 Y97.478 E101.45480
G1 X95.354 Y96.668 E101.52461
G1 X94.931 Y96.035 E101.58267
G1 X94.509 Y95.546 E101.63205
G1 X94.087 Y95.161 E101.67572
G1 X93.242 Y94.594 E101.75343
G1 X92.397 Y94.190 E101.82493
G1 X91.552 Y93.886 E101.89351
G1 X90.694 Y93.678 E101.96099
G1 X90.694 Y90.694 E102.18893
G1 X98.522 Y90.694 E102.78687
G1 X98.733 Y90.938 E102.81148
G1 X99.155 Y91.323 E102.85515
G1 X100.000 Y91.890 E102.93286
G1 X100.845 Y92.293 E103.00436
G1 X101.690 Y92.598 E103.07294
G1 X102.534 Y92.805 E103.13938
G1 X102.957 Y92.814 E103.17165
G1 X103.379 Y92.527 E103.21063
G1 X103.801 Y91.685 E103.28258
G1 X104.238 Y90.694 E103.36531
G1 Z2.100 F4800.000
G1 X90.300 Y90.300
G1 F1500.000
G1 X109.700 Y90.300 E104.84704
G1 X109.700 Y109.700 E106.32878
G1 X90.300 Y109.700 E107.81052
G1 X90.300 Y90.450 E109.28080
G1 X108.316 Y109.306 F4800.000
G1 F2100.000
G1 X107.603 Y108.704 E109.35207
G1 X106.758 Y108.246 E109.42545
G1 X105.913 Y107.957 E109.49366
G1 X105.069 Y107.817 E109.55906
G1 X104.224 Y107.909 E109.62397
G1 X103.801 Y108.130 E109.66038
G1 X103.379 Y108.540 E109.70532
G1 X102.853 Y109.306 E109.77634
G1 X94.799 Y109.306 E110.39147
G1 X94.087 Y108.704 E110.46274
G1 X93.242 Y108.246 E110.53612
G1 X92.397 Y107.957 E110.60432
G1 X91.552 Y107.817 E110.66973
G1 X90.694 Y107.916 E110.73575
G1 X90.694 Y103.766 E111.05277
G1 X91.130 Y103.153 E111.11019
G1 X91.552 Y102.660 E111.15981
G1 X92.397 Y101.946 E111.24428
G1 X93.242 Y101.488 E111.31767
G1 X94.087 Y101.199 E111.38587
G1 X94.931 Y101.058 E111.45128
G1 X95.776 Y101.151 E111.51619
G1 X96.199 Y101.372 E111.55260
G1 X96.621 Y101.782 E111.59754
G1 X97.888 Y103.605 E111.76712
G1 X98.310 Y104.098 E111.81674
G1 X99.155 Y104.812 E111.90122
G1 X100.000 Y105.270 E111.97460
G1 X100.845 Y105.559 E112.04280
G1 X101.690 Y105.700 E112.10821
G1 X102.534 Y105.607 E112.17312
G1 X102.957 Y105.386 E112.20953
G1 X103.379 Y104.977 E112.25447
G1 X104.646 Y103.153 E112.42406
G1 X105.069 Y102.660 E112.47367
G1 X105.913 Y101.946 E112.55815
G1 X106.758 Y101.488 E112.63153
G1 X107.603 Y101.199 E112.69973
